img/ig-icon.svg

<svg id="Camada_1" data-name="Camada 1" xmlns="http://www.w3.org/2000/svg" viewBox="0 0 48 48">
  <defs>
    <style>
      .cls-1 {
        fill: #595959;
      }

      .cls-2 {
        fill: #fff;
      }
    </style>
  </defs>
  <g id="instagram-icon">
    <path class="cls-1" d="M48,24A24,24,0,1,1,24,0,24,24,0,0,1,48,24Z"/>
    <path class="cls-2" d="M33.2,9H14.8A5.8,5.8,0,0,0,9,14.8V33.2A5.8,5.8,0,0,0,14.8,39H33.2A5.8,5.8,0,0,0,39,33.2V14.8A5.8,5.8,0,0,0,33.2,9Zm1.67,3.46h.66v5.08l-5.07,0,0-5.09ZM19.72,20.92a5.27,5.27,0,1,1-1,3.08A5.27,5.27,0,0,1,19.72,20.92ZM36.08,33.2a2.88,2.88,0,0,1-2.88,2.88H14.8a2.88,2.88,0,0,1-2.88-2.88V20.92H16.4A8.2,8.2,0,1,0,32.2,24a8.09,8.09,0,0,0-.6-3.08h4.48Z"/>
  </g>
</svg>

<?xml version="1.0" encoding="UTF-8"?>
<svg id="iconSocialMedia" xmlns="http://www.w3.org/2000/svg" viewBox="0 0 48 48">
  <g id="instagram-icon">
    <path d="M48,24c0,13.3-10.7,24-24,24S0,37.3,0,24,10.7,0,24,0s24,10.7,24,24Z" style="fill: #e47a3a;"/>
    <path id="white" d="M33.2,9H14.8c-3.2,0-5.8,2.6-5.8,5.8v18.4c0,3.2,2.6,5.8,5.8,5.8h18.4c3.2,0,5.8-2.6,5.8-5.8V14.8c0-3.2-2.6-5.8-5.8-5.8Zm1.7,3.5h.7v5.1h-5.1v-5.1h4.4Zm-15.2,8.4c1.7-2.4,5-2.9,7.4-1.2s2.9,5,1.2,7.4-5,2.9-7.4,1.2c-1.4-1-2.2-2.6-2.2-4.3,0-1.1,.4-2.2,1-3.1Zm16.4,12.3c0,1.6-1.3,2.9-2.9,2.9H14.8c-1.6,0-2.9-1.3-2.9-2.9h0v-12.3h4.5c-1.7,4.2,.3,9,4.5,10.7,4.2,1.7,9-.3,10.7-4.5,.4-1,.6-2,.6-3.1s-.2-2.1-.6-3.1h4.5v12.3Z" style="fill: #fff;"/>
  </g>
</svg>
